assets/img/icons/duotone-icons/Cooking/Saucepan.svg

<?xml version="1.0" encoding="UTF-8"?>
<svg width="24px" height="24px" viewBox="0 0 24 24" version="1.1" xmlns="http://www.w3.org/2000/svg" xmlns:xlink="http://www.w3.org/1999/xlink">
    <!-- Generator: Sketch 52.2 (67145) - http://www.bohemiancoding.com/sketch -->
    <title>Stockholm-icons / Cooking / Saucepan</title>
    <desc>Created with Sketch.</desc>
    <g id="Stockholm-icons-/-Cooking-/-Saucepan" stroke="none" stroke-width="1" fill="none" fill-rule="evenodd">
        <rect id="bound" x="0" y="0" width="24" height="24"></rect>
        <path d="M2,9 L12,9 C12.5522847,9 13,9.44771525 13,10 L13,13 C13,15.209139 11.209139,17 9,17 L5,17 C2.790861,17 1,15.209139 1,13 L1,10 C1,9.44771525 1.44771525,9 2,9 Z" id="Rectangle-203" fill="#335EEA"></path>
        <path d="M14.9984604,9.44452998 L21.5023095,9.08320503 C22.2847837,9.03973424 22.9543445,9.63881491 22.9978153,10.4212892 C22.9992715,10.4475009 23,10.4737479 23,10.5 L23,10.5 C23,11.2836808 22.3647011,11.9189797 21.5810203,11.9189797 C21.5547682,11.9189797 21.5285212,11.9182512 21.5023095,11.916795 L14.9984604,11.55547 C14.4382868,11.5243493 14,11.0610373 14,10.5 L14,10.5 C14,9.93896268 14.4382868,9.47565073 14.9984604,9.44452998 Z" id="Rectangle-206" fill="#335EEA" opacity="0.3"></path>
    </g>
</svg>

<svg width="24" height="24" viewBox="0 0 24 24" xmlns="http://www.w3.org/2000/svg"><g fill="none" fill-rule="evenodd"><path d="M0 0h24v24H0z"/><path d="M2 9h10a1 1 0 011 1v3a4 4 0 01-4 4H5a4 4 0 01-4-4v-3a1 1 0 011-1z" fill="#335EEA"/><path d="M14.998 9.445l6.504-.362A1.419 1.419 0 0123 10.5a1.419 1.419 0 01-1.498 1.417l-6.504-.362a1.057 1.057 0 010-2.11z" fill="#335EEA" opacity=".3"/></g></svg>
